images/chains/xrpl.svg

<svg fill="none" height="225" viewBox="0 0 298 225" width="298" xmlns="http://www.w3.org/2000/svg"><g fill="#000"><path d="m68.5456 13.9416h5.4217v-13.94146076h-5.4217c-5.7481-.00509365-11.4409 1.12334076-16.7525 3.32072076s-10.1378 5.42058-14.2024 9.48514c-4.0645 4.0646-7.2877 8.8908-9.4851 14.2024s-3.3258 11.0043-3.3207 16.7525v31.7556c.0116 6.7239-2.5492 13.1976-7.1576 18.094-4.6083 4.8963-10.91503 7.8445-17.6273 8.2395l.387264 6.971-.387264 6.971c6.71227.395 13.019 3.344 17.6273 8.24 4.6084 4.896 7.1692 11.37 7.1576 18.094v36.596c-.0206 12.144 4.7811 23.799 13.3499 32.404 8.5687 8.605 20.2034 13.456 32.3472 13.487v-13.942c-8.4206-.005-16.4948-3.352-22.449-9.306s-9.3015-14.029-9.3066-22.449v-36.79c.0058-6.568-1.5971-13.038-4.6687-18.844-3.0717-5.805-7.5185-10.77-12.9518-14.461 5.4178-3.706 9.8529-8.674 12.9226-14.4764 3.0698-5.8021 4.6821-12.2639 4.6979-18.8281v-31.7556c.0356-7.8976 3.1887-15.4615 8.7732-21.046s13.1485-8.7376 21.046-8.7733z"/><path d="m229.648 13.9414h-5.421v-13.94146104h5.421c11.579.03077664 22.672 4.65733104 30.841 12.86296104 8.17 8.2056 12.747 19.319 12.726 30.8978v31.7556c-.011 6.7239 2.55 13.1976 7.158 18.094 4.608 4.8963 10.915 7.8447 17.627 8.2397l-.387 6.971.387 6.971c-6.712.395-13.019 3.343-17.627 8.24-4.608 4.896-7.169 11.37-7.158 18.094v36.596c.021 12.144-4.781 23.799-13.35 32.404-8.568 8.605-20.203 13.456-32.347 13.487v-13.942c8.421-.005 16.495-3.352 22.449-9.306 5.954-5.955 9.302-14.029 9.307-22.449v-36.79c-.006-6.569 1.597-13.038 4.669-18.844 3.071-5.806 7.518-10.771 12.951-14.461-5.417-3.706-9.853-8.674-12.922-14.4766-3.07-5.8021-4.682-12.2639-4.698-18.8281v-31.7556c.02-3.9053-.731-7.7763-2.21-11.3907s-3.657-6.9012-6.41-9.6717c-2.752-2.7705-6.025-4.9702-9.63-6.4729-3.604-1.5028-7.47-2.2789-11.376-2.284z"/><path d="m199.828 56.1533h20.719l-43.18 40.4691c-7.747 7.0096-17.823 10.8916-28.27 10.8916-10.448 0-20.524-3.882-28.271-10.8916l-43.1795-40.4691h20.7186l32.7239 30.5938c4.887 4.4849 11.278 6.9733 17.911 6.9733s13.024-2.4884 17.911-6.9733z"/><path d="m98.1717 168.459h-20.7186l43.3739-40.663c7.704-7.096 17.795-11.035 28.27-11.035 10.474 0 20.566 3.939 28.27 11.035l43.374 40.663h-20.719l-32.917-30.981c-4.887-4.485-11.279-6.973-17.911-6.973-6.633 0-13.025 2.488-17.911 6.973z"/></g></svg>

<svg width="400" height="400" viewBox="0 0 400 400" fill="none" xmlns="http://www.w3.org/2000/svg">
  <rect width="400" height="400" fill="white"/>
  <g transform="translate(51, 87.5)">
    <path d="M68.5456 13.9416H73.9673V0.000139238H68.5456C62.7975 -0.00495441 57.1047 1.12348 51.7931 3.32086C46.4815 5.51824 41.6553 8.74144 37.5907 12.806C33.5262 16.8706 30.303 21.6968 28.1056 27.0084C25.9082 32.32 24.7798 38.0127 24.7849 43.7609V75.5165C24.7965 82.2404 22.2357 88.7141 17.6273 93.6105C13.019 98.5068 6.71227 101.455 0 101.85L0.387264 108.821L0 115.792C6.71227 116.187 13.019 119.136 17.6273 124.032C22.2357 128.928 24.7965 135.402 24.7849 142.126V178.722C24.7643 190.866 29.566 202.521 38.1348 211.126C46.7035 219.731 58.3382 224.582 70.482 224.613V210.671C62.0614 210.666 53.9872 207.319 48.033 201.365C42.0788 195.411 38.7315 187.336 38.7264 178.916V142.126C38.7322 135.558 37.1293 129.088 34.0577 123.282C30.986 117.477 26.5392 112.512 21.1059 108.821C26.5237 105.115 30.9588 100.147 34.0285 94.3446C37.0983 88.5425 38.7106 82.0807 38.7264 75.5165V43.7609C38.762 35.8633 41.9151 28.2994 47.4996 22.7149C53.0841 17.1304 60.6481 13.9773 68.5456 13.9416V13.9416Z" fill="black"/>
    <path d="M229.648 13.9414H224.227V-6.10352e-05H229.648C241.227 0.0307156 252.32 4.65727 260.489 12.8629C268.659 21.0685 273.236 32.1819 273.215 43.7607V75.5163C273.204 82.2402 275.765 88.7139 280.373 93.6103C284.981 98.5066 291.288 101.455 298 101.85L297.613 108.821L298 115.792C291.288 116.187 284.981 119.135 280.373 124.032C275.765 128.928 273.204 135.402 273.215 142.126V178.722C273.236 190.866 268.434 202.521 259.865 211.126C251.297 219.731 239.662 224.582 227.518 224.613V210.671C235.939 210.666 244.013 207.319 249.967 201.365C255.921 195.41 259.269 187.336 259.274 178.916V142.126C259.268 135.557 260.871 129.088 263.943 123.282C267.014 117.476 271.461 112.511 276.894 108.821C271.477 105.115 267.041 100.147 263.972 94.3444C260.902 88.5423 259.29 82.0805 259.274 75.5163V43.7607C259.294 39.8554 258.543 35.9844 257.064 32.37C255.585 28.7556 253.407 25.4688 250.654 22.6983C247.902 19.9278 244.629 17.7281 241.024 16.2254C237.42 14.7226 233.554 13.9465 229.648 13.9414V13.9414Z" fill="black"/>
    <path d="M199.828 56.1533H220.547L177.367 96.6224C169.62 103.632 159.544 107.514 149.097 107.514C138.649 107.514 128.573 103.632 120.826 96.6224L77.6465 56.1533H98.3651L131.089 86.7471C135.976 91.232 142.367 93.7204 149 93.7204C155.633 93.7204 162.024 91.232 166.911 86.7471L199.828 56.1533Z" fill="black"/>
    <path d="M98.1717 168.459H77.4531L120.827 127.796C128.531 120.7 138.622 116.761 149.097 116.761C159.571 116.761 169.663 120.7 177.367 127.796L220.741 168.459H200.022L167.105 137.478C162.218 132.993 155.826 130.505 149.194 130.505C142.561 130.505 136.169 132.993 131.283 137.478L98.1717 168.459Z" fill="black"/>
  </g>
</svg>
